X:1
T:With heart and mouth unto the Lord
T:Edmund Hooper (ca 1553-1621)
T:Source : The Whole Book of Psalms---London---Musical Antiquarian Society---1844 First publication : London---Th.Est(e)---1592. Editor : André Vierendeels ((07/09/16).
T:With heart and mouth unto the Lord (Ps 9)
T:©
T:©
T:©
C:Edmund Hooper
C:(ca 1553-1621)
Z:©
%%score [ 1 2 3 4 ]
L:1/8
Q:1/4=120
M:4/4
K:F
V:1 treble nm="Soprano" snm="S"
V:2 treble nm="Alto" snm="A"
V:3 treble-8 nm="Tenor" snm="T"
V:4 bass nm="Bass" snm="B"
V:1
 G4 G4- | G4 G4 | ^F8 | G8 | A6 c2 |[M:2/4] !fermata!=B4 || G4 |[M:4/4] d8 | d4 d4- | d4 c4 | d8 | %11
w: With heart|_ and|mouth|un-|to the|Lord,|will|I|sing laud|_ and|praise,|
 z4 D4 | F4 G4 | A8 | G4 ^F4- | F4 B4 |[M:2/4] A4 || d4 ||[M:4/4] c8 | _e4 d4- | d2 c2 A4 | %21
w: and|speak of|all|thy wound'-|* rous|works,|and|them|de- clare|_ _ al-|
 !fermata!=B8 |] %22
w: ways.|
V:2
 _E4 D4- | D4 C4 | D8 | D4 C4- | C4 A,4 |[M:2/4] !fermata!D4 || D4 |[M:4/4] ^F8 | G4 ^F4- | F4 G4 | %10
w: With heart|_ and|mouth|un- to|_ the|Lord,|will|I|sing laud|_ and|
 ^F8 | z4 !courtesy!=F4 | D4 D4 | F8 | D4 D4- | D4 D4 |[M:2/4] D4 || !courtesy!=F4 ||[M:4/4] C8 | %19
w: praise,|my|speak of|all|thy wound'|_ rous|works,|and|them|
 C4 G4- | G4 ^F4 | !fermata!G8 |] %22
w: de- clare|_ al-|ways.|
V:3
 G4 B4- | B4 G4 | A8 | G4 E4 | ^F8 |[M:2/4] !fermata!G4 || B4 |[M:4/4] A8 | B4 A4- | A4 G4 | A8 | %11
w: With heart|_ and|mouth|un- to|the|Lord,|will|I|sing laud|_ and|praise,|
 z4 A4 | A4 B4 | c8 | B4 A4- | A4 G4 |[M:2/4] ^F4 || B4 ||[M:4/4] A8 | G4 B4 | A8 | !fermata!G8 |] %22
w: my|speak of|all|thy wound'-|* rous|works,|and|them|de- clare|al-|ways.|
V:4
 C,4 G,4- | G,4 _E,4 | D,8 | =B,,4 C,4 | A,,8 |[M:2/4] !fermata!G,,4 || G,4 |[M:4/4] D,8 | %8
w: With heart|_ and|mouth|un- to|the|Lord,|will|I|
 G,,4 D,4- | D,4 _E,4 | D,8 | z4 D,4 | D,4 G,4 | F,8 | G,4 D,4- | D,4 G,,4 |[M:2/4] D,4 || B,,4 || %18
w: sing laud|_ and|praise,|my|speak of|all|thy wound'-|* rous|works,|and|
[M:4/4] F,8 | C,4 G,,4 | D,8 | !fermata!G,,8 |] %22
w: them|de- clare|al-|ways.|

